X:1
T:Stockyard
%%subtitlespace
T:(Dandy Jim)
%%composerspace
C:from the playing of Sally Sloane
%%musicspace
L:1/8
M:2/4
K:G
|Bd/B/ AG|Bd dG|Bd/B/ AG|BA G2|
|Bd/B/ AG|Bd dG|Bd/B/ AG|BA G2|
|gg gA|BG Bd|gg gA|BG A2|
|gg gA|BG Bd|Bd/B/ AG|BA G2|]
